public/images/icons/chakra/sahasrara.svg

<svg xmlns="http://www.w3.org/2000/svg" width="48" height="48" viewBox="0 0 48 48"><circle cx="24" cy="24" r="4" fill="none" stroke="#8b00ff" stroke-width="2"/><path fill="none" stroke="#8b00ff" stroke-width="1.2" d="M24 20c-.8-1.5-.8-3.5 0-5 .8 1.5.8 3.5 0 5Zm2.5.3c.5-1.5 2-3.1 3-3.5-.3 1.4-1.5 3-3 3.5ZM28 22c1.5-1 3.2-1.5 4.5-1-1 1.2-2.7 1.8-4.5 1Zm0 2c1.5-.5 3.2-.5 4.5 0-1.3.5-3 .5-4.5 0Zm0 2c1.8-.8 3.5-.2 4.5 1-1.3.5-3 0-4.5-1Zm-1.5 1.7c1.5.5 2.7 2.1 3 3.5-1-.4-2.5-2-3-3.5ZM24 28c.8 1.5.8 3.5 0 5-.8-1.5-.8-3.5 0-5Zm-2.5-.3c-.5 1.5-2 3.1-3 3.5.3-1.4 1.5-3 3-3.5ZM20 26c-1.8 1-3.5 1.5-4.5 1 1-1.2 2.7-1.8 4.5-1Zm0-2c-1.5.5-3.2.5-4.5 0 1.3-.5 3-.5 4.5 0Zm0-2c-1.8.8-3.5.2-4.5-1 1.3-.5 3 0 4.5 1Zm1.5-1.7c-1.5-.5-2.7-2.1-3-3.5 1 .4 2.5 2 3 3.5Z"/><path fill="none" stroke="#8b00ff" stroke-width=".8" d="M24 15c-1-2-1-6 0-9 1 3 1 7 0 9Zm2.8.3c.5-2.1 2.2-5.5 3.7-7.3-.5 2.5-1.7 5.5-3.7 7.3Zm2.4 1.2c1.3-1.7 4-4 6-5-1.2 2.3-3.7 4.5-6 5Zm1.8 2c2-1.3 5-2.5 7.2-2.5-1.4 2-4.2 3.5-7.2 2.5Zm1 2.5c2.2-.8 5.2-1 7.5-.2-2 1.4-5 1.7-7.5.2Zm.2 3c2.6-.8 5.6-.5 7.8.5-2.5 1-5.5.7-7.8-.5Zm-.2 3c2.5-1.5 5.5-1.2 7.5.2-2.3.8-5.3.6-7.5-.2Zm-1 2.5c3-1 5.8.5 7.2 2.5-2.2 0-5.2-1.2-7.2-2.5Zm-1.8 2c2.3.5 4.8 2.7 6 5-2-1-4.7-3.3-6-5Zm-2.4 1.2c2 1.8 3.2 4.8 3.7 7.3-1.5-1.8-3.2-5.2-3.7-7.3ZM24 33c1 2 1 6 0 9-1-3-1-7 0-9Zm-2.8-.3c-.5 2.1-2.2 5.5-3.7 7.3.5-2.5 1.7-5.5 3.7-7.3Zm-2.4-1.2c-1.3 1.7-4 4-6 5 1.2-2.3 3.7-4.5 6-5Zm-1.8-2c-2 1.3-5 2.5-7.2 2.5 1.4-2 4.2-3.5 7.2-2.5ZM16 27c-2.5.8-5.2 1-7.5.2 2-1.4 5-1.7 7.5-.2Zm-.2-3c-2.6 1.2-5.3 1.5-7.8.5 2.2-1 5.5-1.3 7.8-.5Zm.2-3c-2.5 1.5-5.5 1.2-7.5-.2 2.3-.8 5.3-.6 7.5.2Zm1-2.5c-3 1-5.8-.5-7.2-2.5 2.2 0 5.2 1.2 7.2 2.5Zm1.8-2c-2.3-.5-4.8-2.7-6-5 2 1 4.7 3.3 6 5Zm2.4-1.2c-2-1.8-3.2-4.8-3.7-7.3 1.5 1.8 3.2 5.2 3.7 7.3Z"/><circle cx="24" cy="24" r="1.5" fill="#8b00ff"/></svg>

<svg xmlns="http://www.w3.org/2000/svg" viewBox="0 0 48 48" width="48" height="48">
  <g fill="none" stroke="#8B00FF" stroke-width="2">
    <!-- Central circle -->
    <circle cx="24" cy="24" r="4"/>
  </g>
  <g fill="none" stroke="#8B00FF" stroke-width="1.2">
    <!-- Multi-layered crown pattern representing 1000 petals -->
    <!-- Inner ring of small petals (12 petals) -->
    <path d="M24,20 C23.2,18.5 23.2,16.5 24,15 C24.8,16.5 24.8,18.5 24,20Z"/>
    <path d="M26.5,20.3 C27,18.8 28.5,17.2 29.5,16.8 C29.2,18.2 28,19.8 26.5,20.3Z"/>
    <path d="M28,22 C29.5,21 31.2,20.5 32.5,21 C31.5,22.2 29.8,22.8 28,22Z"/>
    <path d="M28,24 C29.5,23.5 31.2,23.5 32.5,24 C31.2,24.5 29.5,24.5 28,24Z"/>
    <path d="M28,26 C29.8,25.2 31.5,25.8 32.5,27 C31.2,27.5 29.5,27 28,26Z"/>
    <path d="M26.5,27.7 C28,28.2 29.2,29.8 29.5,31.2 C28.5,30.8 27,29.2 26.5,27.7Z"/>
    <path d="M24,28 C24.8,29.5 24.8,31.5 24,33 C23.2,31.5 23.2,29.5 24,28Z"/>
    <path d="M21.5,27.7 C21,29.2 19.5,30.8 18.5,31.2 C18.8,29.8 20,28.2 21.5,27.7Z"/>
    <path d="M20,26 C18.2,27 16.5,27.5 15.5,27 C16.5,25.8 18.2,25.2 20,26Z"/>
    <path d="M20,24 C18.5,24.5 16.8,24.5 15.5,24 C16.8,23.5 18.5,23.5 20,24Z"/>
    <path d="M20,22 C18.2,22.8 16.5,22.2 15.5,21 C16.8,20.5 18.5,21 20,22Z"/>
    <path d="M21.5,20.3 C20,19.8 18.8,18.2 18.5,16.8 C19.5,17.2 21,18.8 21.5,20.3Z"/>
  </g>
  <g fill="none" stroke="#8B00FF" stroke-width="0.8">
    <!-- Outer ring of petals (20 petals) representing the many-petaled crown -->
    <path d="M24,15 C23,13 23,9 24,6 C25,9 25,13 24,15Z"/>
    <path d="M26.8,15.3 C27.3,13.2 29,9.8 30.5,8 C30,10.5 28.8,13.5 26.8,15.3Z"/>
    <path d="M29.2,16.5 C30.5,14.8 33.2,12.5 35.2,11.5 C34,13.8 31.5,16 29.2,16.5Z"/>
    <path d="M31,18.5 C33,17.2 36,16 38.2,16 C36.8,18 34,19.5 31,18.5Z"/>
    <path d="M32,21 C34.2,20.2 37.2,20 39.5,20.8 C37.5,22.2 34.5,22.5 32,21Z"/>
    <path d="M32.2,24 C34.8,23.2 37.8,23.5 40,24.5 C37.5,25.5 34.5,25.2 32.2,24Z"/>
    <path d="M32,27 C34.5,25.5 37.5,25.8 39.5,27.2 C37.2,28 34.2,27.8 32,27Z"/>
    <path d="M31,29.5 C34,28.5 36.8,30 38.2,32 C36,32 33,30.8 31,29.5Z"/>
    <path d="M29.2,31.5 C31.5,32 34,34.2 35.2,36.5 C33.2,35.5 30.5,33.2 29.2,31.5Z"/>
    <path d="M26.8,32.7 C28.8,34.5 30,37.5 30.5,40 C29,38.2 27.3,34.8 26.8,32.7Z"/>
    <path d="M24,33 C25,35 25,39 24,42 C23,39 23,35 24,33Z"/>
    <path d="M21.2,32.7 C20.7,34.8 19,38.2 17.5,40 C18,37.5 19.2,34.5 21.2,32.7Z"/>
    <path d="M18.8,31.5 C17.5,33.2 14.8,35.5 12.8,36.5 C14,34.2 16.5,32 18.8,31.5Z"/>
    <path d="M17,29.5 C15,30.8 12,32 9.8,32 C11.2,30 14,28.5 17,29.5Z"/>
    <path d="M16,27 C13.5,27.8 10.8,28 8.5,27.2 C10.5,25.8 13.5,25.5 16,27Z"/>
    <path d="M15.8,24 C13.2,25.2 10.5,25.5 8,24.5 C10.2,23.5 13.5,23.2 15.8,24Z"/>
    <path d="M16,21 C13.5,22.5 10.5,22.2 8.5,20.8 C10.8,20 13.8,20.2 16,21Z"/>
    <path d="M17,18.5 C14,19.5 11.2,18 9.8,16 C12,16 15,17.2 17,18.5Z"/>
    <path d="M18.8,16.5 C16.5,16 14,13.8 12.8,11.5 C14.8,12.5 17.5,14.8 18.8,16.5Z"/>
    <path d="M21.2,15.3 C19.2,13.5 18,10.5 17.5,8 C19,9.8 20.7,13.2 21.2,15.3Z"/>
  </g>
  <!-- Small center dot -->
  <circle cx="24" cy="24" r="1.5" fill="#8B00FF"/>
</svg>
